src/assets/icons/shapes,simple,outline-pentagon.svg

<svg width="48" height="48" viewBox="0 0 48 48" fill="none" xmlns="http://www.w3.org/2000/svg">
<rect opacity="0.2" x="5" y="5" width="38" height="38" rx="4" fill="black"/>
<path d="M22.2366 12.5172C22.8225 12.0916 23.1945 11.8232 23.4978 11.6519C23.7787 11.4933 23.9101 11.4721 24 11.4721C24.0899 11.4721 24.2213 11.4933 24.5022 11.6519C24.8055 11.8232 25.1775 12.0916 25.7634 12.5172L34.3759 18.7746C34.9617 19.2002 35.3319 19.4711 35.5886 19.7066C35.8262 19.9247 35.8869 20.0431 35.9147 20.1287C35.9425 20.2142 35.963 20.3457 35.8989 20.6618C35.8297 21.0033 35.6895 21.44 35.4657 22.1287L32.176 32.2533C31.9522 32.942 31.809 33.3778 31.6643 33.6947C31.5303 33.988 31.4365 34.0824 31.3637 34.1353C31.2909 34.1881 31.1722 34.2482 30.8518 34.285C30.5057 34.3247 30.047 34.3262 29.3228 34.3262H18.6772C17.953 34.3262 17.4943 34.3247 17.1482 34.285C16.8278 34.2482 16.7091 34.1881 16.6363 34.1353C16.5635 34.0824 16.4697 33.988 16.3357 33.6947C16.191 33.3778 16.0478 32.942 15.824 32.2533L12.5343 22.1287C12.3105 21.44 12.1703 21.0033 12.1011 20.6618C12.037 20.3457 12.0575 20.2142 12.0853 20.1287C12.1131 20.0431 12.1738 19.9247 12.4114 19.7066C12.6681 19.4711 13.0383 19.2002 13.6241 18.7746L22.2366 12.5172Z" stroke="black" stroke-width="2"/>
</svg>

<svg xmlns="http://www.w3.org/2000/svg" width="48" height="48" fill="none" viewBox="0 0 48 48">
  <rect width="38" height="38" x="5" y="5" fill="#000" opacity=".2" rx="4"/>
  <path stroke="#000" stroke-width="2" d="M25.763 12.517l8.613 6.258c.586.425.956.696 1.213.932.237.218.298.336.326.422.028.085.048.217-.016.533-.07.341-.21.778-.433 1.467l-3.29 10.124c-.224.689-.367 1.125-.512 1.442-.134.293-.228.387-.3.44-.073.053-.192.113-.512.15-.346.04-.805.041-1.53.041H18.678c-.724 0-1.183-.001-1.529-.041-.32-.037-.439-.097-.512-.15-.072-.053-.166-.147-.3-.44-.145-.317-.288-.753-.512-1.442l-3.29-10.124c-.224-.689-.364-1.126-.433-1.467-.064-.316-.044-.448-.016-.533.028-.086.089-.204.326-.422.257-.236.627-.507 1.213-.932l8.613-6.258c.586-.425.958-.694 1.26-.865.282-.159.413-.18.503-.18.09 0 .221.021.502.18.303.171.675.44 1.261.865z"/>
</svg>
